X: 5910
T: Camchuairt An Connachtaigh
R: reel
M: 4/4
K: Gmajor
BA|"G"GBdf g2gf|"Am"ecAB "C"cBcd|"Em"eBdf "C"gefe|"D7"dcBA "G"GABc||
"G"d2ef gefg|"Am"aged "C"c2dc|"Em"Bdef "C"g2fe|"D7"dcBA "G"G2:|
ef|"G"g2 eg "D"f2 df|"C"g2 ef "G"gbaf|"G"g2 eg "D"fd "C"ge|"D7"dcBA "G"GBef|
"G"gfeg "D"fedf|"Em"edBe "G"dBGB|"C"cBAB cdeg|"D"fdef "G"g2:|

